svgs/solid/cheese-swiss.svg

<svg xmlns="http://www.w3.org/2000/svg" viewBox="0 0 512 512"><!-- Font Awesome Pro 6.0.0-alpha2 by @fontawesome - https://fontawesome.com License - https://fontawesome.com/license (Commercial License) --><path d="M368 336.005C341.5 336.005 320 314.506 320 288.007H0V448.001C0 465.626 14.375 480 32 480H480C497.625 480 512 465.626 512 448.001V288.007H416C416 314.506 394.5 336.005 368 336.005ZM176 432.002C149.5 432.002 128 410.503 128 384.004S149.5 336.005 176 336.005S224 357.505 224 384.004S202.5 432.002 176 432.002ZM299.875 32.017C292.125 31.767 284.625 34.267 278.75 39.017L217 87.015C229.625 107.889 224.625 134.763 205.5 149.763C186.25 164.762 158.875 162.887 141.875 145.513L0 256.009H512C512 136.138 417.999 38.267 299.875 32.017Z"/></svg>

<svg xmlns="http://www.w3.org/2000/svg" viewBox="0 0 512 512"><!-- Font Awesome Pro 5.15.1 by @fontawesome - https://fontawesome.com License - https://fontawesome.com/license (Commercial License) --><path d="M368 336a48 48 0 0 1-48-48H0v160a32 32 0 0 0 32 32h448a32 32 0 0 0 32-32V288h-96a48 48 0 0 1-48 48zm-192 96a48 48 0 1 1 48-48 48 48 0 0 1-48 48zM299.83 32a32 32 0 0 0-21.13 7l-61.76 48.06a47.91 47.91 0 0 1-75.1 58.48L0 256h512c0-119.89-94-217.8-212.17-224z"/></svg>
